X: 14234
T: Funny Weather
R: reel
M: 4/4
K: Eminor
|DEED B,GFE-|EGFD F/G/AGF|DEED B,GFG-|GFDB, DEED|
EGFD B,GFE-|EGFD F/G/AGF|EGFD B,GFG-|GFDB, DEED||
E2 FB,-B,D- DE-|EGFD F/G/AGF|EGFD B,GFG-|GFDB, DEED|
E2 FB,-B,D- DE-|EGFD F/G/AGF|EGFD B,GFE-|EF-FG- GAAB||
c2 BGA-A GA-|[M:3/4] AGFG AB|[M:4/4] c2 BGA-A GA-|[M:3/4] AGFG AB|
[M:4/4] c2 BGA-A GA-|[M:3/4] AGFG AB|[M:4/4] c2 BGA-A GA-|[M:3/4] AGFG AB|
[M:4/4] c2 BGA-A GA-|[M:3/4] AGFG AB|[M:4/4] c2 BGA-A GF|zGFE G/F/EFD||

